svg/football-sharp.svg

<?xml version="1.0" encoding="UTF-8" standalone="no"?>
<svg
   xmlns:dc="http://purl.org/dc/elements/1.1/"
   xmlns:cc="http://creativecommons.org/ns#"
   xmlns:rdf="http://www.w3.org/1999/02/22-rdf-syntax-ns#"
   xmlns:svg="http://www.w3.org/2000/svg"
   xmlns="http://www.w3.org/2000/svg"
   xmlns:sodipodi="http://sodipodi.sourceforge.net/DTD/sodipodi-0.dtd"
   xmlns:inkscape="http://www.inkscape.org/namespaces/inkscape"
   class="ionicon"
   viewBox="0 0 512 512"
   version="1.1"
   id="svg6"
   sodipodi:docname="football-sharp.svg"
   inkscape:version="1.0.2 (e86c8708, 2021-01-15)">
  <metadata
     id="metadata12">
    <rdf:RDF>
      <cc:Work
         rdf:about="">
        <dc:format>image/svg+xml</dc:format>
        <dc:type
           rdf:resource="http://purl.org/dc/dcmitype/StillImage" />
      </cc:Work>
    </rdf:RDF>
  </metadata>
  <defs
     id="defs10" />
  <sodipodi:namedview
     pagecolor="#ffffff"
     bordercolor="#666666"
     borderopacity="1"
     objecttolerance="10"
     gridtolerance="10"
     guidetolerance="10"
     inkscape:pageopacity="0"
     inkscape:pageshadow="2"
     inkscape:window-width="689"
     inkscape:window-height="480"
     id="namedview8"
     showgrid="false"
     inkscape:zoom="1.3027344"
     inkscape:cx="256"
     inkscape:cy="256"
     inkscape:window-x="44"
     inkscape:window-y="25"
     inkscape:window-maximized="0"
     inkscape:current-layer="svg6" />
  <title
     id="title2">Football</title>
  <path
     style="color:#000000;font-style:normal;font-variant:normal;font-weight:normal;font-stretch:normal;font-size:medium;line-height:normal;font-family:sans-serif;font-variant-ligatures:normal;font-variant-position:normal;font-variant-caps:normal;font-variant-numeric:normal;font-variant-alternates:normal;font-variant-east-asian:normal;font-feature-settings:normal;font-variation-settings:normal;text-indent:0;text-align:start;text-decoration:none;text-decoration-line:none;text-decoration-style:solid;text-decoration-color:#000000;letter-spacing:normal;word-spacing:normal;text-transform:none;writing-mode:lr-tb;direction:ltr;text-orientation:mixed;dominant-baseline:auto;baseline-shift:baseline;text-anchor:start;white-space:normal;shape-padding:0;shape-margin:0;inline-size:0;clip-rule:nonzero;display:inline;overflow:visible;visibility:visible;isolation:auto;mix-blend-mode:normal;color-interpolation:sRGB;color-interpolation-filters:linearRGB;solid-color:#000000;solid-opacity:1;vector-effect:none;fill:#000000;fill-opacity:1;fill-rule:nonzero;stroke-width:1;stroke-linecap:butt;stroke-linejoin:miter;stroke-miterlimit:4;stroke-dasharray:none;stroke-dashoffset:0;stroke-opacity:1;color-rendering:auto;image-rendering:auto;shape-rendering:auto;text-rendering:auto;enable-background:accumulate;stop-color:#000000;stop-opacity:1;stroke:none;opacity:1"
     d="M 256,48 C 141.31,48 48,141.31 48,256 48,370.69 141.31,464 256,464 370.69,464 464,370.69 464,256 464,141.31 370.69,48 256,48 Z m 140.64,296.08 h -46.77 l -16.89,-29 15,-60.44 29.81,-12.64 42.65,36.71 c -3.1935,23.23478 -11.30744,45.52084 -23.8,65.37 z M 134.21,242 164,254.67 l 15,60.44 -16.89,29 H 115.36 C 102.87142,324.26982 94.757633,301.9944 91.56,278.77 Z M 383.28,149.53 364.87,201.86 333.75,215.04 277,167.46 v -35 l 43.86,-29.22 c 24.16274,10.31125 45.54957,26.18177 62.42,46.32 z M 191.14,103.2 235,132.42 v 35 l -56.75,47.61 -31.12,-13.18 -18.41,-52.33 c 16.87043,-20.13823 38.25726,-36.00875 62.42,-46.32 z m 26.44,314.3 -20.1,-50.66 16,-27.51 h 85 l 16.06,27.53 -20,50.6 c -25.31291,6.02651 -51.68709,6.02651 -77,0 z"
     id="path4" />
</svg>

<svg xmlns="http://www.w3.org/2000/svg" width="512" height="512" viewBox="0 0 512 512"><title>ionicons-v5-n</title><path d="M256,48C141.31,48,48,141.31,48,256s93.31,208,208,208,208-93.31,208-208S370.69,48,256,48ZM396.64,344.08H349.87l-16.89-29,15-60.44L377.79,242l42.65,36.71A164.87,164.87,0,0,1,396.64,344.08ZM134.21,242,164,254.67l15,60.44-16.89,29H115.36a164.87,164.87,0,0,1-23.8-65.34Zm249.07-92.47-18.41,52.33-31.12,13.18L277,167.46v-35l43.86-29.22A166.87,166.87,0,0,1,383.28,149.56ZM191.14,103.2,235,132.42v35l-56.75,47.61-31.12-13.18-18.41-52.33A166.87,166.87,0,0,1,191.14,103.2Zm26.44,314.3-20.1-50.66,16-27.51h85l16.06,27.53-20,50.6a166.23,166.23,0,0,1-77,0Z"/></svg>
